svgs/solid/dial-max.svg

<svg xmlns="http://www.w3.org/2000/svg" viewBox="0 0 576 512"><!--! Font Awesome Pro 6.2.0 by @fontawesome - https://fontawesome.com License - https://fontawesome.com/license (Commercial License) Copyright 2022 Fonticons, Inc. --><path d="M288 64c-17.7 0-32-14.3-32-32s14.3-32 32-32s32 14.3 32 32s-14.3 32-32 32zM401.4 174.7c56.7 56.7 61.9 145.4 15.7 208L305.3 270.9c-9.4-9.4-24.6-9.4-33.9 0s-9.4 24.6 0 33.9L383.2 416.7c-62.6 46.2-151.3 41-208-15.7c-62.5-62.5-62.5-163.8 0-226.3s163.8-62.5 226.3 0zM576 288c0 17.7-14.3 32-32 32s-32-14.3-32-32s14.3-32 32-32s32 14.3 32 32zM32 320c-17.7 0-32-14.3-32-32s14.3-32 32-32s32 14.3 32 32s-14.3 32-32 32zM128 96c0 17.7-14.3 32-32 32s-32-14.3-32-32s14.3-32 32-32s32 14.3 32 32zm352 32c-17.7 0-32-14.3-32-32s14.3-32 32-32s32 14.3 32 32s-14.3 32-32 32zM128 480c0 17.7-14.3 32-32 32s-32-14.3-32-32s14.3-32 32-32s32 14.3 32 32zm352 32c-17.7 0-32-14.3-32-32s14.3-32 32-32s32 14.3 32 32s-14.3 32-32 32z"/></svg>

<svg xmlns="http://www.w3.org/2000/svg" viewBox="0 0 576 512"><!--! Font Awesome Pro 6.1.2 by @fontawesome - https://fontawesome.com License - https://fontawesome.com/license (Commercial License) Copyright 2022 Fonticons, Inc. --><path d="M256 32C256 14.33 270.3 0 288 0C305.7 0 320 14.33 320 32C320 49.67 305.7 64 288 64C270.3 64 256 49.67 256 32zM401.4 174.7C458.1 231.5 463.4 320.2 417.1 382.8L305.3 270.9C295.9 261.5 280.7 261.5 271.3 270.9C261.9 280.3 261.9 295.5 271.3 304.9L383.2 416.7C320.6 462.1 231.9 457.7 175.1 401C112.7 338.5 112.7 237.2 175.1 174.7C237.6 112.3 338.9 112.3 401.4 174.7V174.7zM576 288C576 305.7 561.7 320 544 320C526.3 320 512 305.7 512 288C512 270.3 526.3 256 544 256C561.7 256 576 270.3 576 288zM0 288C0 270.3 14.33 256 32 256C49.67 256 64 270.3 64 288C64 305.7 49.67 320 32 320C14.33 320 0 305.7 0 288zM128 96C128 113.7 113.7 128 96 128C78.33 128 64 113.7 64 96C64 78.33 78.33 64 96 64C113.7 64 128 78.33 128 96zM448 96C448 78.33 462.3 64 480 64C497.7 64 512 78.33 512 96C512 113.7 497.7 128 480 128C462.3 128 448 113.7 448 96zM128 480C128 497.7 113.7 512 96 512C78.33 512 64 497.7 64 480C64 462.3 78.33 448 96 448C113.7 448 128 462.3 128 480zM448 480C448 462.3 462.3 448 480 448C497.7 448 512 462.3 512 480C512 497.7 497.7 512 480 512C462.3 512 448 497.7 448 480z"/></svg>
